X: 34668
T: Road To Cashel, The
R: reel
M: 4/4
K: Edorian
FEED E3B|FE E2 deBd|FEED E2BA|FDD2 dABd|
FEED E3B|FE E2 deBd|FEED E2BA|FAdA BdAd||
B3d fgfe|dfab afed|(3Bcd ge f3e|dBAF FEE2|
B3d fgfe|dfab afef|bf f2 af f2|bfaf edBA||

